src/assets/icons/moon.svg

<svg width="14" height="14" viewBox="0 0 14 14" fill="none" xmlns="http://www.w3.org/2000/svg">
<g id="moon">
<g clip-path="url(#clip0_156_4622)">
<path id="Vector" d="M7.07308 14C6.77163 14 6.46776 13.9822 6.16147 13.9434C3.01852 13.5507 0.450983 10.9831 0.0574077 7.83856C-0.403246 4.15737 1.97114 0.797836 5.5804 0.0236155C5.97397 -0.0620499 6.36432 0.0890768 6.6003 0.416383C6.84033 0.749347 6.85891 1.19384 6.64879 1.54862C6.14935 2.39234 5.96266 3.36052 6.11055 4.3481C6.38129 6.16162 7.8376 7.61874 9.65193 7.88947C10.6395 8.03979 11.6069 7.85149 12.4514 7.35124C12.8054 7.14111 13.2507 7.1597 13.5836 7.40054C13.9101 7.63571 14.0613 8.02605 13.9764 8.42044C13.2668 11.7291 10.3841 14 7.07308 14ZM5.39614 1.31991C2.65485 2.12807 0.897898 4.78774 1.26076 7.68824C1.58645 10.2905 3.71112 12.4152 6.3126 12.7401C9.2139 13.1021 11.8728 11.346 12.6809 8.60389C11.6893 9.0896 10.5878 9.25527 9.47332 9.0896C7.13612 8.73966 5.26037 6.86391 4.91205 4.5267C4.74476 3.40982 4.91205 2.31072 5.39614 1.31991Z" fill="black"/>
</g>
</g>
<defs>
<clipPath id="clip0_156_4622">
<rect width="14" height="14" fill="white"/>
</clipPath>
</defs>
</svg>

<svg xmlns="http://www.w3.org/2000/svg" fill="none" viewBox="0 0 14 14"><g clip-path="url(#a)"><path fill="#000" d="M7.073 14q-.452 0-.912-.057C3.02 13.551.451 10.983.057 7.84-.403 4.157 1.971.798 5.58.024A.98.98 0 0 1 6.6.416c.24.333.259.778.049 1.133a4.24 4.24 0 0 0 5.803 5.803c.353-.21.799-.192 1.132.049a.985.985 0 0 1 .392 1.02A7.03 7.03 0 0 1 7.073 14M5.396 1.32C2.655 2.128.898 4.788 1.261 7.688c.325 2.603 2.45 4.727 5.052 5.052 2.9.362 5.56-1.394 6.368-4.136a5.4 5.4 0 0 1-3.208.486 5.46 5.46 0 0 1-4.561-4.563 5.4 5.4 0 0 1 .484-3.207"/></g><defs><clipPath id="a"><path fill="#fff" d="M0 0h14v14H0z"/></clipPath></defs></svg>
